icon/pk/cruise.svg

<svg viewBox="0 0 48 48" fill="none" xmlns="http://www.w3.org/2000/svg" height="1em" width="1em">
  <path d="M38 42L41.3908 32.6752C41.738 31.7205 41.3143 30.6572 40.4057 30.2028L24.8944 22.4472C24.3314 22.1657 23.6686 22.1657 23.1056 22.4472L7.59432 30.2028C6.68569 30.6572 6.26199 31.7205 6.60916 32.6752L10 42" stroke="black" stroke-width="4" stroke-linejoin="round"/>
  <path d="M35 14H13C11.8954 14 11 14.8954 11 16V28L23.1619 22.3868C23.6937 22.1414 24.3063 22.1414 24.8381 22.3868L37 28V16C37 14.8954 36.1046 14 35 14Z" fill="#2F88FF" stroke="black" stroke-width="4" stroke-linecap="round" stroke-linejoin="round"/>
  <path d="M29 14V6C29 4.89543 28.1046 4 27 4H21C19.8954 4 19 4.89543 19 6V14" stroke="black" stroke-width="4" stroke-linecap="round" stroke-linejoin="round"/>
  <path d="M24 32V40" stroke="black" stroke-width="4" stroke-linecap="round"/>
  <path d="M4 44C8 44 8 42 11 42C14 42 14 44 17 44C20 44 20.5 42 24 42C27.5 42 28 44 31 44C34 44 34 42 37 42C40 42 40 44 44 44" stroke="black" stroke-width="4" stroke-linecap="round" stroke-linejoin="round"/>
</svg>

<svg width="48" height="48" fill="none" xmlns="http://www.w3.org/2000/svg"><path d="m38 42 3.39-9.325a2 2 0 0 0-.984-2.472l-15.512-7.756a2 2 0 0 0-1.788 0L7.594 30.203a2 2 0 0 0-.985 2.472L10 42" stroke="#000" stroke-width="4" stroke-linejoin="round"/><path d="M35 14H13a2 2 0 0 0-2 2v12l12.162-5.613a2 2 0 0 1 1.676 0L37 28V16a2 2 0 0 0-2-2Z" fill="#2F88FF" stroke="#000" stroke-width="4" stroke-linecap="round" stroke-linejoin="round"/><path d="M29 14V6a2 2 0 0 0-2-2h-6a2 2 0 0 0-2 2v8" stroke="#000" stroke-width="4" stroke-linecap="round" stroke-linejoin="round"/><path d="M24 32v8" stroke="#000" stroke-width="4" stroke-linecap="round"/><path d="M4 44c4 0 4-2 7-2s3 2 6 2 3.5-2 7-2 4 2 7 2 3-2 6-2 3 2 7 2" stroke="#000" stroke-width="4" stroke-linecap="round" stroke-linejoin="round"/></svg>
